**kern	**kern	**dynam
*part1	*part1	*part1
*staff2	*staff1	*
*I"Piano	*	*
*clefF4	*clefG2	*
*k[f#c#g#d#]	*k[f#c#g#d#]	*
=1	=1	=1
8EL	4.G#)	.
(8EE	.	.
8FF#J	.	.
8GG#L	(4.G# 4.B	.
8AA	.	.
8AA#XJ	.	.
8BBL	4.A 4.B	.
8C#	.	.
8D#J	.	.
=	=	=
2.E)	4.G#) 4.B	.
.	4.B 4.e 4.g#	.
4G#	4e 4b	.
8E	8g#	.
=	=	=
!	!LO:TX:b:i:t=colla voce	!
[2.BB [2.F#	[2.B [2.d# [2.a	.
4.BB] 4.F#]	4.B] 4.d#] 4.a]	.
=	=	=
[2.EE [2.E	[2.B [2.d# [2.a	.
4.EE] 4.E]	4.B] 4.d#] 4.a]	.
=	=	=
!	!LO:TX:a:B:t=a tempo	!
[2.E	(8g#L	.
.	8e	.
.	8eJ	.
.	8f#L 8a	.
.	8e	.
.	8eJ	.
*^	*	*
4.E]	(4.dn	8g#L 8b	.
.	.	8e	.
.	.	8eJ	.
=	=	=	=
[2.E	4.c#	8aL 8cc#	<
.	.	8e	.
.	.	8eJ	.
.	4.B	8bL 8dd#X	.
.	.	8e	.
.	.	8eJ	.
4.E]	4.A)	8cc#L 8ee	.
.	.	8e	.
.	.	8eJ)	.
*v	*v	*	*
=	=	=
[2.E [2.G#	[2.e [2.b	[ >
4.E] 4.G#]	4.e] 4.b]	.
=	=	=
[2.EE [2.E	[2.B [2.g#	.
4.EE] 4.E]	4.B] 4.g#]	]
==	==	==
*-	*-	*-
!!!system-decoration: {(s1,s2)}
